X: 228
T: Take Fresh Courage
C: Teton Sioux band 1911-1914
N: Derived from sioux223.krn
O: South Dakota, U.S.A.
N: Teton Sioux Music by Frances Densmore, 1918
Z: transcribed to **kern format by Craig Sapp
L: 1/8
M: 3/4
Q: 1/4=58
K: Bb clef=treble
%%linebreak <none>
G A G G G/ D3/ [I:setbarnb 1]||  
[M:5/8]G G G/< D/ D D// C// C/ ||  
[M:3/4]D D C C B, B, ||  
[M:2/4]C C B, B, ||  
[M:3/4]A, A, C C B, B, ||  
[M:2/4]B, B, B, B, | 
A,2A,3/ A,/ ||  
[M:3/4]A, A, A, A, A, A, ||  
[M:2/4]A,2A, A, ||  
[M:5/8]D D/ D/ D D/ C/ C ||  
[M:2/4]D D/ C/ C C ||  
[M:3/4]B,2C C B, B, ||  
[M:2/4]A,/> A,/ A, D D | 
C C C C | 
C C C C | 
A, A,/> A,/A,2 | 
A, A, A, A, | 
A,4 |]  



